X: 132
T: No_89_Song_for_Man_Who_Lights_Pipe.krn
N: Derived from No_89_Song_for_Man_Who_Lights_Pipe.krn
%%abc-version 2.0
%%abcx-abcm2ps-target-version 5.9.1 (29 Sep 2008)
%%abc-creator hum2abc beta
%%abcx-conversion-date 2019/03/15 08:35:45
%%humdrum-veritas 2006359043
%%humdrum-veritas-data 4284293844
%%linebreak <none>
%%barnumbers 0
L: 1/8
M: 3/4
K: G clef=bass
[K:clef=bass][M:3/4]D/DD/ E3/D/ DE ||  
[M:2/4]D/DD/ D3/B,/ ||  
[M:3/4](D4A,2) ]|:  
D/DD/ E3/D/ DE ||  
[M:2/4]D/DD/ D z | 
D4 ||  
[M:3/4]D3/C/ C3/C/A,2 ||  
[M:2/4]G,3/G,/ E,3/D,/ | 
D,D, D, z | 
G,4 | 
G,3/E,/ E,3/G,/ | 
E,2D,D, | 
D,4 | 
D,2z2 |]  



